svg/fluentui-system-icons/ic_fluent_video_recording_20_filled.svg

<svg width="20" height="20" viewBox="0 0 20 20" fill="none" xmlns="http://www.w3.org/2000/svg">
<path d="M10.5 4C11.8807 4 13 5.11929 13 6.5V13.5C13 14.7095 12.1411 15.7184 11 15.95V12.5C11 10.567 9.433 9 7.5 9H3.5C2.9632 9 2.45463 9.12085 2 9.33681V6.5C2 5.11929 3.11929 4 4.5 4H10.5ZM14 12.0815V7.93082L16.7692 5.61756C17.2575 5.20962 18 5.55685 18 6.19315V13.8606C18 14.4999 17.2512 14.8461 16.7642 14.4319L14 12.0815ZM1 12.5C1 11.1193 2.11929 10 3.5 10H7.5C8.88071 10 10 11.1193 10 12.5V16.5C10 17.8807 8.88071 19 7.5 19H3.5C2.11929 19 1 17.8807 1 16.5V12.5ZM5.02008 12.534C4.94209 12.4811 4.85564 12.4546 4.7607 12.4546C4.69458 12.4546 4.63186 12.4687 4.57252 12.4969C4.51319 12.5234 4.46148 12.5596 4.41741 12.6054C4.37333 12.6513 4.33773 12.7051 4.31061 12.7668C4.28518 12.8286 4.27246 12.8938 4.27246 12.9626V16.0374C4.27246 16.1045 4.28518 16.1689 4.31061 16.2306C4.33773 16.2924 4.37333 16.347 4.41741 16.3947C4.46318 16.4405 4.51573 16.4776 4.57507 16.5058C4.6344 16.5323 4.69628 16.5455 4.7607 16.5455C4.80986 16.5455 4.85564 16.5384 4.89802 16.5243C4.94209 16.5102 4.98532 16.489 5.02771 16.4608L7.32395 14.8943C7.39346 14.8485 7.44771 14.7867 7.4867 14.7091C7.52569 14.6315 7.54519 14.5503 7.54519 14.4656C7.54519 14.3774 7.52485 14.2963 7.48416 14.2222C7.44347 14.1463 7.38753 14.0855 7.31633 14.0396L5.02008 12.534Z" fill="#212121"/>
</svg>

<svg xmlns="http://www.w3.org/2000/svg" width="20" height="20"><path d="M10.5 4A2.5 2.5 0 0 1 13 6.5v7a2.5 2.5 0 0 1-2 2.45V12.5A3.5 3.5 0 0 0 7.5 9h-4c-.537 0-1.045.12-1.5.337V6.5A2.5 2.5 0 0 1 4.5 4h6Zm3.5 8.082V7.93l2.77-2.313a.75.75 0 0 1 1.23.575v7.668a.75.75 0 0 1-1.236.57L14 12.082ZM1 12.5A2.5 2.5 0 0 1 3.5 10h4a2.5 2.5 0 0 1 2.5 2.5v4A2.5 2.5 0 0 1 7.5 19h-4A2.5 2.5 0 0 1 1 16.5v-4Zm4.02.034a.452.452 0 0 0-.447-.037.49.49 0 0 0-.156.108.51.51 0 0 0-.145.357v3.075a.502.502 0 0 0 .145.358.563.563 0 0 0 .158.11.45.45 0 0 0 .323.02.52.52 0 0 0 .13-.064l2.296-1.567a.47.47 0 0 0 .163-.185.536.536 0 0 0-.003-.487.487.487 0 0 0-.168-.182L5.02 12.534Z"/></svg>
